DVA
CUT[Medche, waelt te'n Far nien?
    Naei Motter naei!]
REG[Europa, Mitteleuropa, Deutschland, Siebenbuergen]
KEY[D0219  16  F 2/4]
MEL[    1_-7_1_2_  3__4__
    5__5_.-7  1__0_
    1_  1_-7_1_2_  3_3_3__
    1_-7_1_2_  3_3_3__
    5__5_.-7  1__0__ //] >>
FCT[Ehestands - Lied]
CMT[Variante in D0219A notiert, Inzipit = Variante zum Lied]
